assets/img/img-pages/icon-property/sex-symbol1.svg

<svg width="64" height="64" viewBox="0 0 64 64" fill="none" xmlns="http://www.w3.org/2000/svg">
<path d="M35.7284 42.5609C35.7284 41.9252 36.2439 41.4052 36.8784 41.4052C37.5142 41.4052 38.0284 41.915 38.0284 42.5494V42.5609C38.0284 43.1961 37.5136 43.7109 36.8784 43.7109C36.2433 43.7109 35.7284 43.1961 35.7284 42.5609Z" fill="#14213D" stroke="white" stroke-width="0.2"/>
<path d="M50.6622 10.8749L50.9183 10.6188H50.5561H48C47.3925 10.6188 46.9 10.1263 46.9 9.51882V4.56494C46.9 3.95741 47.3925 3.46494 48 3.46494H62.75C63.3575 3.46494 63.85 3.95741 63.85 4.56494V19.3123C63.85 19.9198 63.3575 20.4123 62.75 20.4123H57.7944C57.1868 20.4123 56.6944 19.9198 56.6944 19.3123V16.8014V16.4393L56.4383 16.6954L53.0268 20.1069L52.9435 20.1901L53.0047 20.2908C54.79 23.2311 55.7289 26.5854 55.7289 30.0558C55.7289 40.4496 47.2727 48.9058 36.8789 48.9058C31.7332 48.9058 26.8773 46.8135 23.3576 43.1889L23.1 42.9236V43.2934V48.4347V48.5847H23.25H27C27.6075 48.5847 28.1 49.0772 28.1 49.6847V55.1847C28.1 55.7922 27.6075 56.2847 27 56.2847H23.25H23.1V56.4347V59.4347C23.1 60.0422 22.6075 60.5347 22 60.5347H16C15.3925 60.5347 14.9 60.0422 14.9 59.4347V56.4347V56.2847H14.75H11C10.3925 56.2847 9.9 55.7922 9.9 55.1847V49.6847C9.9 49.0772 10.3925 48.5847 11 48.5847H14.75H14.9V48.4347V40.9557V40.8362L14.7835 40.8095C10.854 39.9093 7.28539 37.7496 4.64741 34.6545L4.53325 34.7518L4.64741 34.6545C1.74721 31.2518 0.15 26.9121 0.15 22.4347C0.15 12.0409 8.60622 3.58469 19 3.58469C25.2391 3.58469 30.7792 6.63235 34.2124 11.3174L34.265 11.3892L34.3533 11.3774C35.1873 11.2657 36.0344 11.2058 36.8789 11.2058C40.5566 11.2058 44.0789 12.2503 47.1322 14.2367L47.2341 14.303L47.3201 14.217L50.6622 10.8749ZM25.9 50.9347V50.7847H25.75H22C21.3925 50.7847 20.9 50.2922 20.9 49.6847V39.9309C20.9 39.3947 21.2868 38.9365 21.8154 38.8466C29.8317 37.482 35.65 30.5794 35.65 22.4347C35.65 13.2537 28.181 5.78469 19 5.78469C9.81903 5.78469 2.35 13.2537 2.35 22.4347C2.35 30.5793 8.1683 37.4819 16.1846 38.8466C16.7132 38.9365 17.1 39.3947 17.1 39.9309V49.6847C17.1 50.2922 16.6075 50.7847 16 50.7847H12.25H12.1V50.9347V53.9347V54.0847H12.25H16C16.6075 54.0847 17.1 54.5772 17.1 55.1847V58.1847V58.3347H17.25H20.75H20.9V58.1847V55.1847C20.9 54.5772 21.3925 54.0847 22 54.0847H25.75H25.9V53.9347V50.9347ZM61.5 18.2123H61.65V18.0623V5.81494V5.66494H61.5H49.25H49.1V5.81494V8.26894V8.41894H49.25H53.574C54.019 8.41894 54.42 8.6869 54.5903 9.09797C54.7606 9.50894 54.6665 9.98216 54.3519 10.2967L48.1393 16.5094C47.7554 16.8932 47.149 16.9396 46.7112 16.6187C43.8439 14.5169 40.4436 13.4058 36.8791 13.4058C36.5198 13.4058 36.1607 13.4201 35.8035 13.4429L35.5721 13.4576L35.6804 13.6626C36.1342 14.522 36.524 15.4198 36.8423 16.3506L36.8767 16.4513L36.9831 16.4521C44.4343 16.5083 50.4791 22.5867 50.4791 30.0508C50.4791 33.0356 49.5306 35.8681 47.7356 38.2432C45.9998 40.5401 43.5324 42.258 40.7887 43.0801C40.683 43.1117 40.5766 43.1267 40.4724 43.1267C39.9989 43.1267 39.5619 42.8185 39.4192 42.3421L39.2755 42.3852L39.4192 42.3421C39.2447 41.7601 39.5751 41.147 40.157 40.9726L40.114 40.8289L40.1571 40.9726C44.9398 39.5395 48.279 35.0487 48.279 30.0507C48.279 24.029 43.5859 19.0838 37.6654 18.6783L37.4709 18.665L37.5078 18.8564C37.7314 20.0154 37.85 21.2114 37.85 22.4347C37.85 26.912 36.2528 31.2518 33.353 34.6544C32.1563 36.0583 30.7677 37.2692 29.241 38.258L29.0774 38.364L29.2217 38.495C30.4783 39.636 31.9715 40.4841 33.6008 40.9724C34.1827 41.1468 34.513 41.76 34.3387 42.3419L34.4824 42.3849L34.3387 42.3419C34.196 42.8183 33.7588 43.1264 33.2855 43.1264C33.181 43.1264 33.0746 43.1115 32.9692 43.0799L32.9692 43.0799C30.7586 42.4174 28.7588 41.2004 27.1451 39.5458L27.0707 39.4695L26.9742 39.5147C26.0875 39.9294 25.1683 40.2755 24.2244 40.5479L24.0023 40.6121L24.1513 40.7888C27.3001 44.5216 31.9385 46.7057 36.879 46.7057C46.06 46.7057 53.529 39.2367 53.529 30.0557C53.529 26.6841 52.5258 23.436 50.628 20.6636C50.329 20.2267 50.3836 19.6387 50.7579 19.2644L57.0165 13.0058C57.3312 12.6913 57.8043 12.5971 58.2153 12.7674C58.6263 12.9377 58.8944 13.3389 58.8944 13.7837V18.0623V18.2123H59.0444H61.5Z" fill="#14213D" stroke="white" stroke-width="0.3"/>
<path d="M9.33039 12.8004L9.33039 12.8004L9.31783 12.8132L9.31772 12.8133C8.87556 13.2693 8.88681 13.9973 9.34277 14.4395L9.33039 12.8004ZM9.33039 12.8004L9.33085 12.7999M9.33039 12.8004L9.33085 12.7999M9.33085 12.7999C9.77369 12.3512 10.4964 12.3427 10.9498 12.7822M9.33085 12.7999L10.9498 12.7822M10.9498 12.7822C11.4058 13.2244 11.4171 13.9525 10.9749 14.4084L10.9625 14.4211C10.7376 14.6492 10.4407 14.7638 10.1432 14.7638C9.85464 14.7638 9.56616 14.656 9.34279 14.4395L10.9498 12.7822Z" fill="#14213D" stroke="white" stroke-width="0.2"/>
<path d="M26.6348 14.2307L26.7984 14.1247L26.6541 13.9937C24.6295 12.1564 21.9432 11.0351 19 11.0351C17.3021 11.0351 15.6685 11.3991 14.1452 12.1171C13.5956 12.3761 12.9402 12.1405 12.6812 11.5911C12.4221 11.0415 12.6576 10.3862 13.2072 10.1271L13.1433 9.99143L13.2072 10.1271C15.0261 9.26974 16.9747 8.83506 19 8.83506C26.4989 8.83506 32.6 14.9362 32.6 22.4351C32.6 29.934 26.4989 36.0351 19 36.0351C11.5011 36.0351 5.4 29.934 5.4 22.4351C5.4 20.5235 5.78895 18.6752 6.55582 16.9406C6.80144 16.385 7.4511 16.1337 8.00672 16.3794C8.56231 16.625 8.81357 17.2747 8.56794 17.8303C7.92566 19.2829 7.6 20.8325 7.6 22.4351C7.6 28.4564 12.2923 33.4012 18.2122 33.8073L18.4065 33.8207L18.3698 33.6294C18.1448 32.4563 18.0289 31.2601 18.0289 30.0562C18.0289 23.64 21.2952 17.6916 26.6348 14.2307ZM20.6044 33.58L20.6342 33.7186L20.7743 33.6966C21.7127 33.5493 22.6135 33.2872 23.4619 32.925L23.5742 32.8771L23.55 32.7574C23.371 31.8702 23.2789 30.9627 23.2789 30.0511C23.2789 25.4059 25.6876 21.0488 29.596 18.5643L29.6993 18.4986L29.6556 18.3842C29.3206 17.506 28.8802 16.6795 28.3496 15.9203L28.2684 15.8042L28.1479 15.8785C23.2444 18.9032 20.2289 24.263 20.2288 30.0561C20.2288 31.2463 20.3563 32.4275 20.6044 33.58ZM25.5671 31.4734L25.599 31.7295L25.8057 31.5751C28.592 29.4951 30.4 26.1724 30.4 22.4349C30.4 21.9521 30.3695 21.4763 30.311 21.009L30.2789 20.7532L30.0723 20.9075C27.2124 23.0446 25.4789 26.4433 25.4789 30.0511C25.4789 30.5279 25.5086 31.0031 25.5671 31.4734Z" fill="#14213D" stroke="white" stroke-width="0.3"/>
</svg>

<svg width="64" height="64" fill="none" xmlns="http://www.w3.org/2000/svg"><path d="M35.728 42.56c0-.635.516-1.155 1.15-1.155.636 0 1.15.51 1.15 1.144v.012a1.15 1.15 0 1 1-2.3 0Z" fill="#14213D" stroke="#fff" stroke-width=".2"/><path d="m50.662 10.875.256-.256H48a1.1 1.1 0 0 1-1.1-1.1V4.565a1.1 1.1 0 0 1 1.1-1.1h14.75a1.1 1.1 0 0 1 1.1 1.1v14.747a1.1 1.1 0 0 1-1.1 1.1h-4.956a1.1 1.1 0 0 1-1.1-1.1V16.44l-.256.256-3.411 3.412-.084.083.062.1a18.747 18.747 0 0 1 2.724 9.766c0 10.394-8.456 18.85-18.85 18.85a18.831 18.831 0 0 1-13.521-5.717l-.258-.265v5.66H27a1.1 1.1 0 0 1 1.1 1.1v5.5a1.1 1.1 0 0 1-1.1 1.1h-3.9v3.15a1.1 1.1 0 0 1-1.1 1.1h-6a1.1 1.1 0 0 1-1.1-1.1v-3.15H11a1.1 1.1 0 0 1-1.1-1.1v-5.5a1.1 1.1 0 0 1 1.1-1.1h3.9v-7.748l-.117-.026c-3.929-.9-7.498-3.06-10.136-6.156l-.114.098.114-.098A18.853 18.853 0 0 1 .15 22.434C.15 12.042 8.606 3.585 19 3.585c6.24 0 11.78 3.048 15.212 7.733l.053.072.088-.012a19.066 19.066 0 0 1 2.526-.171c3.678 0 7.2 1.044 10.253 3.03l.102.067.086-.086 3.342-3.342ZM25.9 50.935v-.15H22a1.1 1.1 0 0 1-1.1-1.1V39.93a1.1 1.1 0 0 1 .915-1.084A16.597 16.597 0 0 0 35.65 22.435c0-9.181-7.469-16.65-16.65-16.65-9.181 0-16.65 7.469-16.65 16.65a16.597 16.597 0 0 0 13.835 16.412 1.1 1.1 0 0 1 .915 1.084v9.754a1.1 1.1 0 0 1-1.1 1.1h-3.9v3.3H16a1.1 1.1 0 0 1 1.1 1.1v3.15h3.8v-3.15a1.1 1.1 0 0 1 1.1-1.1h3.9v-3.15Zm35.6-32.723h.15V5.665H49.1v2.754h4.474a1.1 1.1 0 0 1 .778 1.878l-6.213 6.212a1.1 1.1 0 0 1-1.428.11 16.52 16.52 0 0 0-10.907-3.176l-.232.015.108.205c.454.859.844 1.757 1.162 2.688l.035.1.106.001c7.451.056 13.496 6.135 13.496 13.599a13.48 13.48 0 0 1-2.743 8.192 13.707 13.707 0 0 1-6.947 4.837 1.1 1.1 0 0 1-1.37-.738l-.144.043.144-.043a1.1 1.1 0 0 1 .738-1.37l-.043-.143.043.144c4.783-1.434 8.122-5.924 8.122-10.922 0-6.022-4.693-10.967-10.614-11.373l-.194-.013.037.191a18.854 18.854 0 0 1-4.155 15.798 18.912 18.912 0 0 1-4.112 3.604l-.164.106.145.131a11.368 11.368 0 0 0 4.379 2.477 1.1 1.1 0 0 1 .738 1.37l.143.043-.143-.043a1.1 1.1 0 0 1-1.37.738 13.578 13.578 0 0 1-5.824-3.534l-.074-.077-.097.046c-.887.414-1.806.76-2.75 1.033l-.222.064.15.177a16.637 16.637 0 0 0 12.727 5.917c9.181 0 16.65-7.47 16.65-16.65 0-3.372-1.003-6.62-2.901-9.392a1.1 1.1 0 0 1 .13-1.4l6.258-6.258a1.1 1.1 0 0 1 1.878.778v4.428H61.5Z" fill="#14213D" stroke="#fff" stroke-width=".3"/><path d="m9.33 12.8-.012.013a1.15 1.15 0 0 0 .025 1.627L9.33 12.8Zm0 0a1.15 1.15 0 0 1 1.62-.018m-1.62.018 1.62-.018m0 0a1.15 1.15 0 0 1 .025 1.626l-.012.013a1.147 1.147 0 0 1-1.62.019l1.607-1.658Z" fill="#14213D" stroke="#fff" stroke-width=".2"/><path d="m26.635 14.23.163-.105-.144-.131A11.357 11.357 0 0 0 19 11.035a11.3 11.3 0 0 0-4.855 1.082 1.1 1.1 0 0 1-.938-1.99l-.064-.136.064.136A13.482 13.482 0 0 1 19 8.835c7.499 0 13.6 6.101 13.6 13.6s-6.101 13.6-13.6 13.6-13.6-6.101-13.6-13.6c0-1.912.389-3.76 1.156-5.494a1.1 1.1 0 1 1 2.012.89 11.316 11.316 0 0 0-.968 4.604c0 6.021 4.692 10.966 10.612 11.372l.195.014-.037-.192a18.869 18.869 0 0 1 8.265-19.399Zm-6.03 19.35.03.139.14-.022c.938-.148 1.838-.41 2.687-.772l.112-.048-.024-.12a13.692 13.692 0 0 1-.271-2.706c0-4.645 2.409-9.002 6.317-11.487l.103-.065-.043-.115a11.384 11.384 0 0 0-1.306-2.464l-.082-.116-.12.075a16.667 16.667 0 0 0-7.544 17.701Zm4.962-2.107.032.257.207-.155A11.39 11.39 0 0 0 30.31 21.01l-.032-.256-.207.154a11.456 11.456 0 0 0-4.593 9.144c0 .477.03.952.088 1.422Z" fill="#14213D" stroke="#fff" stroke-width=".3"/></svg>
